X: 14953
T: Geese In The Bog, The
R: jig
M: 6/8
K: Aminor
cEE GEE|CEE GEE|cEE GED|EAA A2B|
cEE GEE|CEE GEE|cBA GED|EAA A2B:|
cee gee|aee gee|cee gee|gaa a2e|
cee gee|aee ged|cBA GED|EAA A2B:|

